X:1
T:Classical Bob  "CYMRU"
M:C
L:1/8
Q:80
C:3rd Line = Seconds for 2nd Line
S:Slow Air
K:HP
M:6/8  | \
{g}A2A{gef}e3/2d/2{e}B | \
{g}G3/2{d}A/2B{G}A2G |
{g}A2{GAG}A{ag}a3/2ef/2 | \
g{a}f3/2d/2{gef}e2a | | \
e3/2f/2ga2{g}a |
{f}gf/2d{gef}e3 | \
{g}A2{GAG}A{gef}e3/2d/2{e}B | \
{g}G3{e}A3:| [ |
c3/2d/2ef2{e}e | \
{g}e3/2d/2B{gcd}c3 | \
{g}c2{GdG}c{gcd}c3/2B/2{e}G |
{g}B3{e}c3|]
